icon-svg/sonos-port.svg

<svg xmlns="http://www.w3.org/2000/svg" viewBox="0 0 24 24"><path fill="#44739e" d="M7.054 13.091a.024.024 0 0 0-.022-.022l-.073.045.026.015.045-.022Zm-.141.291.007-.035-.009.033Zm.011-.052v.016Zm.055-.198v.012l.017-.011h-.007ZM22 11.901v-1.608a1 1 0 0 1-.087.119q-.591.348-1.171.705a.15.15 0 0 0-.065.044l-1.432.867-1.085.673q-2.545 1.533-5.075 3.1-.4.237-.8.456a1.05 1.05 0 0 1-.5-.022.06.06 0 0 0-.065.022l-.043-.022-4.49-2.679a3 3 0 0 0-.26-.162l-.011-.013a1.6 1.6 0 0 0-.015.46q-.178.002-.2-.124c0-.176 0-.353.009-.53q-1.5-.847-2.957-1.767-.783-.463-1.572-.911a.1.1 0 0 0-.087-.065l-.087-.13v3.253l.043.044a.15.15 0 0 0 .044.086l.087.066 4.359 2.646q2.5 1.542 5.011 3.058a.13.13 0 0 0 .087.044.076.076 0 0 0 .086.043.7.7 0 0 0 .152.076 4 4 0 0 0 .391.011 2 2 0 0 1 .151-.065 3 3 0 0 0 .282-.152q1.011-.647 2.039-1.258.668-.459 1.367-.868a7 7 0 0 1 .651-.39 10 10 0 0 1 .932-.586q1.771-1.141 3.579-2.234a2.5 2.5 0 0 1 .456-.282v-.022l.173-.108a.14.14 0 0 1 .065-.065.07.07 0 0 1 .033-.065q.005-.824.005-1.645M10.215 9.639a1 1 0 0 0 .833-.167c.292-.183.39-.406.216-.5a1 1 0 0 0-.844.156c-.286.185-.377.417-.205.511m2.09 1.119a1.07 1.07 0 0 0 .834-.168c.3-.173.41-.383.244-.471a1.06 1.06 0 0 0-.844.156c-.295.179-.398.397-.234.483M7.631 12.67a.18.18 0 0 1 .163.061l-.764.376-.038.026a794 794 0 0 0 4.683 2.83l.043.022a.06.06 0 0 1 .065-.022 1.04 1.04 0 0 0 .5.022q.4-.219.8-.455 2.529-1.569 5.075-3.1l1.085-.673 1.431-.867a.2.2 0 0 1 .065-.044q.581-.357 1.172-.7A1 1 0 0 0 22 10.02a.4.4 0 0 0-.021-.13.8.8 0 0 0-.2-.184q-2-1.107-3.991-2.224-.329-.2-.672-.39-.526-.3-1.063-.586a.034.034 0 0 0-.043-.021 4.4 4.4 0 0 0-.629-.347q-1.323-.771-2.668-1.508a2.3 2.3 0 0 0-.456-.238.73.73 0 0 0-.434 0q-1.21.644-2.385 1.333-.749.4-1.475.825a1.1 1.1 0 0 0-.261.152Q4.993 8.201 2.283 9.727a.55.55 0 0 0-.283.315l.086.13a.1.1 0 0 1 .087.065q.791.448 1.573.911c.411.259 1.643 1.012 3.038 1.86q.23-.104.439-.215a1.6 1.6 0 0 1 .408-.123m6.569-2.222a.56.56 0 0 1 .324.034.156.156 0 0 1 .047.242l-.217.017a.107.107 0 0 0-.054-.14.43.43 0 0 0-.358.033c-.07.039-.125.093-.063.22a.21.21 0 0 1 .023.17.43.43 0 0 1-.214.214 1.2 1.2 0 0 1-.372.137.53.53 0 0 1-.316-.019c-.157-.08-.058-.242-.053-.249l.213-.021a.11.11 0 0 0 .058.138.42.42 0 0 0 .35-.041.145.145 0 0 0 .062-.222.23.23 0 0 1-.025-.171.42.42 0 0 1 .214-.215 1.1 1.1 0 0 1 .381-.127m-.6-.447c.235.124.08.416-.34.657a1.5 1.5 0 0 1-1.165.235c-.232-.121-.091-.429.319-.68a1.48 1.48 0 0 1 1.186-.212m-1.409-.738-.4.867.912-.546.122.066-1.415.863.388-.876-.889.562-.122-.065Zm-.716-.418c.246.136.109.448-.3.7a1.38 1.38 0 0 1-1.165.236c-.242-.133-.12-.46.28-.724a1.38 1.38 0 0 1 1.186-.216Zm-2.519.119.215-.018a.15.15 0 0 0 .077.159.37.37 0 0 0 .352-.042c.065-.044.115-.1.035-.25a.3.3 0 0 1-.047-.2.38.38 0 0 1 .191-.239.9.9 0 0 1 .374-.136.55.55 0 0 1 .335.046.2.2 0 0 1 .081.279l-.22.013a.15.15 0 0 0-.076-.157.39.39 0 0 0-.361.03c-.066.043-.116.1-.036.25a.3.3 0 0 1 .046.194.4.4 0 0 1-.191.24 1 1 0 0 1-.365.145.5.5 0 0 1-.327-.036.216.216 0 0 1-.082-.282Z"/></svg>

<?xml version="1.0" encoding="UTF-8"?>
<svg width="24px" fill="#44739e" height="24px" viewBox="0 0 24 24" version="1.1" xmlns="http://www.w3.org/2000/svg" xmlns:xlink="http://www.w3.org/1999/xlink">
            <path d="M 7.054,13.09 A 0.024,0.024 0 0 0 7.032,13.068 c -0.024,0.016 -0.048,0.03 -0.073,0.045 L 6.985,13.128 7.03,13.106 Z M 6.913,13.381 6.92,13.346 6.911,13.379 Z m 0.011,-0.052 v 0 0.016 z m 0.055,-0.198 v 0.012 L 6.996,13.132 H 6.989 Z M 22,11.9 v -1.608 a 0.949,0.949 0 0 1 -0.087,0.119 q -0.591,0.348 -1.171,0.705 A 0.15,0.15 0 0 0 20.677,11.16 L 19.245,12.027 18.16,12.7 q -2.545,1.533 -5.075,3.1 -0.4,0.237 -0.8,0.456 a 1.054,1.054 0 0 1 -0.5,-0.022 0.062,0.062 0 0 0 -0.065,0.022 L 11.677,16.234 7.187,13.555 A 2.613,2.613 0 0 0 6.927,13.393 L 6.916,13.38 a 1.638,1.638 0 0 0 -0.015,0.46 c -0.118,0 -0.186,-0.039 -0.2,-0.124 0,-0.176 0,-0.353 0.009,-0.53 Q 5.21,12.339 3.753,11.419 2.97,10.956 2.181,10.508 A 0.1,0.1 0 0 0 2.094,10.443 C 2.065,10.399 2.036,10.355 2.007,10.313 v 3.253 L 2.05,13.61 a 0.146,0.146 0 0 0 0.044,0.086 l 0.087,0.066 4.359,2.646 q 2.5,1.542 5.011,3.058 a 0.127,0.127 0 0 0 0.087,0.044 0.076,0.076 0 0 0 0.086,0.043 0.675,0.675 0 0 0 0.152,0.076 3.64,3.64 0 0 0 0.391,0.011 1.494,1.494 0 0 1 0.151,-0.065 2.733,2.733 0 0 0 0.282,-0.152 q 1.011,-0.647 2.039,-1.258 0.668,-0.459 1.367,-0.868 a 7.369,7.369 0 0 1 0.651,-0.39 10.063,10.063 0 0 1 0.932,-0.586 q 1.771,-1.141 3.579,-2.234 a 2.478,2.478 0 0 1 0.456,-0.282 v -0.022 l 0.173,-0.108 a 0.141,0.141 0 0 1 0.065,-0.065 0.071,0.071 0 0 1 0.033,-0.065 Q 22,12.721 22,11.9 Z M 10.215,9.638 a 0.991,0.991 0 0 0 0.833,-0.167 c 0.292,-0.183 0.39,-0.406 0.216,-0.5 A 0.991,0.991 0 0 0 10.42,9.127 c -0.286,0.185 -0.377,0.417 -0.205,0.511 z m 2.09,1.119 a 1.065,1.065 0 0 0 0.834,-0.168 c 0.3,-0.173 0.41,-0.383 0.244,-0.471 a 1.062,1.062 0 0 0 -0.844,0.156 c -0.295,0.179 -0.398,0.397 -0.234,0.483 z M 7.631,12.669 A 0.175,0.175 0 0 1 7.794,12.73 L 7.03,13.106 6.992,13.132 c 1.82,1.107 3.857,2.338 4.683,2.83 l 0.043,0.022 a 0.061,0.061 0 0 1 0.065,-0.022 1.041,1.041 0 0 0 0.5,0.022 q 0.4,-0.219 0.8,-0.455 2.529,-1.569 5.075,-3.1 l 1.085,-0.673 1.431,-0.867 a 0.157,0.157 0 0 1 0.065,-0.044 q 0.581,-0.357 1.172,-0.7 A 0.8,0.8 0 0 0 22,10.019 0.407,0.407 0 0 0 21.979,9.889 0.784,0.784 0 0 0 21.779,9.705 q -2,-1.107 -3.991,-2.224 -0.329,-0.2 -0.672,-0.39 -0.526,-0.3 -1.063,-0.586 A 0.034,0.034 0 0 0 16.01,6.484 4.414,4.414 0 0 0 15.381,6.137 Q 14.058,5.366 12.713,4.629 a 2.246,2.246 0 0 0 -0.456,-0.238 0.73,0.73 0 0 0 -0.434,0 Q 10.613,5.035 9.438,5.724 8.689,6.124 7.963,6.549 A 1.135,1.135 0 0 0 7.702,6.701 Q 4.993,8.2 2.283,9.726 A 0.546,0.546 0 0 0 2,10.041 l 0.086,0.13 a 0.1,0.1 0 0 1 0.087,0.065 q 0.791,0.448 1.573,0.911 c 0.411,0.259 1.643,1.012 3.038,1.86 0.152,-0.07 0.3,-0.141 0.439,-0.215 A 1.594,1.594 0 0 1 7.631,12.669 Z M 14.2,10.447 a 0.563,0.563 0 0 1 0.324,0.034 0.156,0.156 0 0 1 0.047,0.242 L 14.354,10.74 A 0.107,0.107 0 0 0 14.3,10.6 0.429,0.429 0 0 0 13.942,10.633 c -0.07,0.039 -0.125,0.093 -0.063,0.22 v 0 a 0.213,0.213 0 0 1 0.023,0.17 0.434,0.434 0 0 1 -0.214,0.214 1.15,1.15 0 0 1 -0.372,0.137 A 0.526,0.526 0 0 1 13,11.355 c -0.157,-0.08 -0.058,-0.242 -0.053,-0.249 l 0.213,-0.021 a 0.112,0.112 0 0 0 0.058,0.138 0.415,0.415 0 0 0 0.35,-0.041 0.145,0.145 0 0 0 0.062,-0.222 v 0 A 0.226,0.226 0 0 1 13.605,10.789 0.417,0.417 0 0 1 13.819,10.574 1.133,1.133 0 0 1 14.2,10.447 Z M 13.6,10 c 0.235,0.124 0.08,0.416 -0.34,0.657 a 1.487,1.487 0 0 1 -1.165,0.235 c -0.232,-0.121 -0.091,-0.429 0.319,-0.68 A 1.478,1.478 0 0 1 13.6,10 Z m -1.409,-0.738 -0.4,0.867 0.912,-0.546 0.122,0.066 -1.415,0.863 0.388,-0.876 -0.889,0.562 -0.122,-0.065 z M 11.475,8.844 c 0.246,0.136 0.109,0.448 -0.3,0.7 A 1.384,1.384 0 0 1 10.01,9.78 C 9.768,9.647 9.89,9.32 10.29,9.056 A 1.378,1.378 0 0 1 11.476,8.84 Z M 8.956,8.963 9.171,8.945 A 0.153,0.153 0 0 0 9.248,9.104 0.371,0.371 0 0 0 9.6,9.062 c 0.065,-0.044 0.115,-0.1 0.035,-0.25 v 0 a 0.3,0.3 0 0 1 -0.047,-0.2 0.376,0.376 0 0 1 0.191,-0.239 0.936,0.936 0 0 1 0.374,-0.136 0.552,0.552 0 0 1 0.335,0.046 0.2,0.2 0 0 1 0.081,0.279 l -0.22,0.013 A 0.148,0.148 0 0 0 10.273,8.418 0.386,0.386 0 0 0 9.912,8.448 c -0.066,0.043 -0.116,0.1 -0.036,0.25 v 0 A 0.291,0.291 0 0 1 9.922,8.892 0.39,0.39 0 0 1 9.731,9.132 0.965,0.965 0 0 1 9.366,9.277 0.512,0.512 0 0 1 9.039,9.241 0.216,0.216 0 0 1 8.957,8.959 Z"/>

</svg>
